src/components/MapCanvas/icons/start.svg

<?xml version="1.0" standalone="no"?><!DOCTYPE svg PUBLIC "-//W3C//DTD SVG 1.1//EN" "http://www.w3.org/Graphics/SVG/1.1/DTD/svg11.dtd"><svg width="100%" height="100%" viewBox="0 0 32 32" version="1.1" xmlns="http://www.w3.org/2000/svg" xmlns:xlink="http://www.w3.org/1999/xlink" xml:space="preserve" style="fill-rule:evenodd;clip-rule:evenodd;stroke-linejoin:round;stroke-miterlimit:1.41421;"><g id="Layer 1"><path d="M16,31.484c-8.538,0 -15.483,-6.946 -15.483,-15.484c0,-8.537 6.945,-15.484 15.483,-15.484c8.538,0 15.483,6.947 15.483,15.484c0,8.538 -6.945,15.484 -15.483,15.484" style="fill:#ffd634;fill-rule:nonzero;"/><path d="M16,0c-8.837,0 -16,7.163 -16,16c0,8.837 7.163,16 16,16c8.837,0 16,-7.163 16,-16c0,-8.837 -7.163,-16 -16,-16M16,1.032c8.253,0 14.968,6.715 14.968,14.968c0,8.253 -6.715,14.968 -14.968,14.968c-8.253,0 -14.968,-6.715 -14.968,-14.968c0,-8.253 6.715,-14.968 14.968,-14.968" style="fill:#000;fill-rule:nonzero;"/><path d="M10.875,7.272l0,17.456l13.5,-8.728l-13.5,-8.728Z" style="fill:#000;fill-rule:nonzero;"/></g></svg>

<svg viewBox="0 0 32 32" height="32px" width="32px" xmlns="http://www.w3.org/2000/svg" fill-rule="evenodd" clip-rule="evenodd" stroke-linejoin="round" stroke-miterlimit="1.414"><g fill-rule="nonzero"><path d="M16 31.484C7.462 31.484.517 24.538.517 16 .517 7.463 7.462.516 16 .516S31.483 7.463 31.483 16c0 8.538-6.945 15.484-15.483 15.484" fill="#ffd634"/><path d="M16 0C7.163 0 0 7.163 0 16s7.163 16 16 16 16-7.163 16-16S24.837 0 16 0m0 1.032c8.253 0 14.968 6.715 14.968 14.968S24.253 30.968 16 30.968 1.032 24.253 1.032 16 7.747 1.032 16 1.032"/><path d="M10.875 7.272v17.456L24.375 16l-13.5-8.728z"/></g></svg>
